X: 36598
T: Shamrock, The
R: jig
M: 6/8
K: Gmajor
|:g|d2 B B^AB|GEE Gge|dB^A B=AG|B2 e efg|
dBB B^AB|GAF GB/c/d|gfe fdB|Bee e2:|
|:f|g2 g f/g/af|e2 e dB/c/d|g2 g fed|Bee e2 f|
gbg faf|e/f/ge dBG|g>fe fdB|B2 e e2:|

